public/Icons/menu-dots.svg

<svg fill="none" height="256" viewBox="0 0 24 24" width="256" xmlns="http://www.w3.org/2000/svg"><g stroke="#275545" stroke-linecap="round" stroke-linejoin="round" stroke-width="2"><path d="m13 5c0-.55228-.4477-1-1-1s-1 .44772-1 1 .4477 1 1 1 1-.44772 1-1z"/><path d="m13 12c0-.5523-.4477-1-1-1s-1 .4477-1 1 .4477 1 1 1 1-.4477 1-1z"/><path d="m13 19c0-.5523-.4477-1-1-1s-1 .4477-1 1 .4477 1 1 1 1-.4477 1-1z"/></g></svg>

<!DOCTYPE svg PUBLIC "-//W3C//DTD SVG 1.1//EN" "http://www.w3.org/Graphics/SVG/1.1/DTD/svg11.dtd">
<!-- Uploaded to: SVG Repo, www.svgrepo.com, Transformed by: SVG Repo Mixer Tools -->
<svg width="256px" height="256px" viewBox="0 0 24 24" fill="none" xmlns="http://www.w3.org/2000/svg" transform="rotate(0)">
<g id="SVGRepo_bgCarrier" stroke-width="0"/>
<g id="SVGRepo_tracerCarrier" stroke-linecap="round" stroke-linejoin="round" stroke="#CCCCCC" stroke-width="1.248"/>
<g id="SVGRepo_iconCarrier"> <path d="M13 5C13 4.44772 12.5523 4 12 4C11.4477 4 11 4.44772 11 5C11 5.55228 11.4477 6 12 6C12.5523 6 13 5.55228 13 5Z" stroke="#275545" stroke-width="2" stroke-linecap="round" stroke-linejoin="round"/> <path d="M13 12C13 11.4477 12.5523 11 12 11C11.4477 11 11 11.4477 11 12C11 12.5523 11.4477 13 12 13C12.5523 13 13 12.5523 13 12Z" stroke="#275545" stroke-width="2" stroke-linecap="round" stroke-linejoin="round"/> <path d="M13 19C13 18.4477 12.5523 18 12 18C11.4477 18 11 18.4477 11 19C11 19.5523 11.4477 20 12 20C12.5523 20 13 19.5523 13 19Z" stroke="#275545" stroke-width="2" stroke-linecap="round" stroke-linejoin="round"/> </g>
</svg>
